X:2
T:Ma lumire et mon salut - Z26-3
C:D. Julien
M:C
L:1/8
K:F
!segno!AA AA AA|G2 (3AAA F2 DF|G4A4||
[M:2/4]zA AA|[M:C]AA AA GG GG|F2 FF EEEE|
F2F2 zF FF|GGGG DD DD|C2 GG AA AA|[M:2/4]F2 F2!segno!||
